X:1
T:Ask John
C:Ask John
C:
S:John Winston
L:1/8
R:Jig
M:6/8
K:D
B2e e>fe | B2e e>fe | ABc dBA | d3 dBA |
B2e e>fe | B2e e>fg | bag agf | ged e3 :|
gdB G3 | F3 AFA | GBd efg | fdc def |
gdB G3 | F3 AFA | GBd efg | fdc d3 :|

